rospo-dark/16x16/panel/synapse-panel.svg

<svg height="22" width="22" xmlns="http://www.w3.org/2000/svg"><path d="m9 2v1.65625.5332031a6.5 6.5 0 0 0 -4.8203125 4.8105469h2.0859375a4.5 4.5 0 0 1 4.234375-3 4.5 4.5 0 0 1 4.232422 3h2.076172a6.5 6.5 0 0 0 -4.808594-4.8105469v-1.1894531-1zm1.5 5a3.5 3.5 0 0 0 -3.5 3.5 3.5 3.5 0 0 0  .0410156.5h.359375.6542969 4.8945315a2.5 2.5 0 0 1 -2.449219 2 2.5 2.5 0 0 1 -1.9980469-1h-1.1601562a3.5 3.5 0 0 0 3.1582031 2 3.5 3.5 0 0 0 3.5-3.5 3.5 3.5 0 0 0 -.041016-.5h-.558593-.455079-4.8945308a2.5 2.5 0 0 1 2.4492188-2 2.5 2.5 0 0 1 1.998047 1h1.160156a3.5 3.5 0 0 0 -3.158203-2zm-6.3164062 5a6.5 6.5 0 0 0 4.8164062 4.814453v.185547 1 1h3v-1-1-.191406a6.5 6.5 0 0 0 4.816406-4.808594h-2.080078a4.5 4.5 0 0 1 -4.236328 3 4.5 4.5 0 0 1 -4.2363281-3z" fill="#d3dae3"/></svg>

<svg xmlns="http://www.w3.org/2000/svg" width="22" height="22" version="1.1">
 <defs>
  <style id="current-color-scheme" type="text/css">
   .ColorScheme-Text { color:#d3dae3; } .ColorScheme-Highlight { color:#5294e2; }
  </style>
 </defs>
 <path style="fill:currentColor" class="ColorScheme-Text" d="M 9 2 L 9 3.65625 L 9 4.1894531 A 6.5 6.5 0 0 0 4.1796875 9 L 6.265625 9 A 4.5 4.5 0 0 1 10.5 6 A 4.5 4.5 0 0 1 14.732422 9 L 16.808594 9 A 6.5 6.5 0 0 0 12 4.1894531 L 12 3 L 12 2 L 9 2 z M 10.5 7 A 3.5 3.5 0 0 0 7 10.5 A 3.5 3.5 0 0 0 7.0410156 11 L 7.4003906 11 L 8.0546875 11 L 12.949219 11 A 2.5 2.5 0 0 1 10.5 13 A 2.5 2.5 0 0 1 8.5019531 12 L 7.3417969 12 A 3.5 3.5 0 0 0 10.5 14 A 3.5 3.5 0 0 0 14 10.5 A 3.5 3.5 0 0 0 13.958984 10 L 13.400391 10 L 12.945312 10 L 8.0507812 10 A 2.5 2.5 0 0 1 10.5 8 A 2.5 2.5 0 0 1 12.498047 9 L 13.658203 9 A 3.5 3.5 0 0 0 10.5 7 z M 4.1835938 12 A 6.5 6.5 0 0 0 9 16.814453 L 9 17 L 9 18 L 9 19 L 12 19 L 12 18 L 12 17 L 12 16.808594 A 6.5 6.5 0 0 0 16.816406 12 L 14.736328 12 A 4.5 4.5 0 0 1 10.5 15 A 4.5 4.5 0 0 1 6.2636719 12 L 4.1835938 12 z"/>
</svg>
